fa/money-check.svg

<svg xmlns="http://www.w3.org/2000/svg" viewBox="0 0 576 512" height="1em" width="1em">
  <path d="M512 64c35.3 0 64 28.65 64 64v256c0 35.3-28.7 64-64 64H64c-35.35 0-64-28.7-64-64V128c0-35.35 28.65-64 64-64h448zM112 224c-8.8 0-16 7.2-16 16s7.2 16 16 16h160c8.8 0 16-7.2 16-16s-7.2-16-16-16H112zm0 128h352c8.8 0 16-7.2 16-16s-7.2-16-16-16H112c-8.8 0-16 7.2-16 16s7.2 16 16 16zm264-192c-13.3 0-24 10.7-24 24v48c0 13.3 10.7 24 24 24h80c13.3 0 24-10.7 24-24v-48c0-13.3-10.7-24-24-24h-80z"/>
</svg>

<svg xmlns="http://www.w3.org/2000/svg" viewBox="0 0 576 512" height="1em" width="1em">
  <path d="M512 64C547.3 64 576 92.65 576 128V384C576 419.3 547.3 448 512 448H64C28.65 448 0 419.3 0 384V128C0 92.65 28.65 64 64 64H512zM112 224C103.2 224 96 231.2 96 240C96 248.8 103.2 256 112 256H272C280.8 256 288 248.8 288 240C288 231.2 280.8 224 272 224H112zM112 352H464C472.8 352 480 344.8 480 336C480 327.2 472.8 320 464 320H112C103.2 320 96 327.2 96 336C96 344.8 103.2 352 112 352zM376 160C362.7 160 352 170.7 352 184V232C352 245.3 362.7 256 376 256H456C469.3 256 480 245.3 480 232V184C480 170.7 469.3 160 456 160H376z"/>
</svg>
